X: 34079
T: Reel De Napoleon
R: reel
M: 4/4
K: Cmajor
|:G|"C"EGGc "F"AFAF|"C"EGdc "G"Bcdf|"C"eccc "F"AFAF|"G"EGdB "C"cBcG|
"C"EGGc "F"AFAF|"C"EGdc "G"Bcdf|"C"eccc "F"AFAF|"G"EGdB "C"c3:|
|:e|"C"gcac gcea|ggec "G"Bddf|"C"ecca gedc|"G"BGAB "C"cBce|
"C"gcac gcea|ggec "G"Bddf|"C"ecGc "F"AFAF|"G"EGdB "C"c3:|

